!!!COM: Bach, Johann Sebastian
!!!CDT: 1685/02/21/-1750/07/28/
!!!OTL@@DE:	Freu dich sehr, o meine Seele
!!!SCT: BWV 39/7
!!!PC#:	67
!!!AGN: chorale
**harm	**kern	**kern	**kern	**kern
*	*ICvox	*ICvox	*ICvox	*ICvox
*	*Ibass	*Itenor	*Ialto	*Isoprn
*	*I"Bass	*I"Tenor	*I"Alto	*I"Soprano
*>[A,A,B]	*>[A,A,B]	*>[A,A,B]	*>[A,A,B]	*>[A,A,B]
*>norep[A,B]	*>norep[A,B]	*>norep[A,B]	*>norep[A,B]	*>norep[A,B]
*>A	*>A	*>A	*>A	*>A
*	*	*oclefC4	*oclefC3	*oclefC1
*	*clefF4	*clefGv2	*clefG2	*clefG2
*k[f#]	*k[f#]	*k[f#]	*k[f#]	*k[f#]
*G:	*G:	*G:	*G:	*G:
*M4/4	*M4/4	*M4/4	*M4/4	*M4/4
*met(c)	*met(c)	*met(c)	*met(c)	*met(c)
*MM100	*MM100	*MM100	*MM100	*MM100
=1-	=1-	=1-	=1-	=1-
I	4G	4B	4d	4g
V6	4F#	4A	4d	4a
I	4G	4G	4d	4b
V	4D	4F#	4d	4a
=2	=2	=2	=2	=2
D:viio6	4E	4G	4c#	4g
I6	4F#	4A	4d	4f#
V7	4A	4G	4c#	4e
I;	4D;	4F#;	4A;	4d;
=3	=3	=3	=3	=3
G:vi	4E	4B	4e	4g
V6	4F#	4A	4d	4a
I	4G	4G	4d	4b
IV6	4E	4G	4cnX	4cc
=4	=4	=4	=4	=4
V(64)	4D	4G	4d	4b
V7	4D	4F#	4c	4a
I;	2GG;	2D;	2B;	2g;
=5:|!	=5:|!	=5:|!	=5:|!	=5:|!
*>B	*>B	*>B	*>B	*>B
I	4GG	4d	4g	4b
e:iv	4AA	4c	4e	4cc
V43/iv	4BBL	4G#L	4e	4dd
iv6	4C	4A	4e	4cc
=6	=6	=6	=6	=6
i	4E	4GnX	4e	4b
iv6	4C	4c	4e	4a
V;	2BB;	2F#;	2d#;	2b;
=7	=7	=7	=7	=7
G:I6	4BB	4G	4dnX	4dd
I	4GG	4B	4g	4dd
IV	4C	4c	4g	4ee
V	4D	4A	4f#	4dd
=8	=8	=8	=8	=8
IV6	8EL	8GL	8eL	8ccL
vii%7	8F#J	8AJ	8eJ	8ccJ
I	8GL	8BL	8dL	8bL
vii%43/V	8GJ	8c#J	8eJ	8bJ
V;	2D;	2d;	2f#;	2a;
=9	=9	=9	=9	=9
I	4G	4d	4g	4b
I	4GG	4B	4g	4dd
viio6	4AA	4A	4f#	4cc
I6	4BB	4D	4g	4b
=10	=10	=10	=10	=10
IV	4CL	4E	4e	4g
viio6	4AA	4F#	4c	4a
I	4GG	4G	4B	4b
e:V	4BB	4F#	4d#	4b
=11	=11	=11	=11	=11
i;	2EE;	2E;	2e;	2g;
i	4E	4G	4e	4b
viio6/iv	4BB	4G#	4f	4dd
=12	=12	=12	=12	=12
iv6	4C	4A	4e	4cc
G:vii%7/V	4C#	4E	4g	4b
V	8DL	8F#L	8f#L	8aL
V2	8CJ	8F#J	8f#J	8aJ
I6	4BB	4GnX	4d	4b
=13	=13	=13	=13	=13
V(54)	4D	4G	4d	4a
V7	4D	4F#	4c	4a
I;	2GG;	2D;	2B;	2g;
==	==	==	==	==
*-	*-	*-	*-	*-
!!!YOR1: 371 vierstimmige Choralges&auml;nge von Johann Sebastian Bach, 
!!!YOR2: 4th ed. by Alfred D&ouml;rffel (Leipzig: Breitkopf und H&auml;rtel, 
!!!YOR2: c.1875). 178 pp. Plate "V.A.10".  reprint: J.S. Bach, 371 Four-Part 
!!!YOR4: Chorales (New York: Associated Music Publishers, Inc., c.1940).
!!!SMS: B&H, 4th ed, Alfred D&ouml;rffel, c.1875, plate V.A.10
!!!EED:  Craig Stuart Sapp
!!!EEV:  2009/05/22
